X:1
T:Looking Backward
T:Looking Backward
T:Copyright © CPDL
T:Copyright © CPDL
T:Copyright © CPDL
T:Copyright © CPDL
T:Copyright © CPDL
Z:Copyright © CPDL
%%score ( 1 2 ) ( 3 4 ) ( 5 6 )
L:1/8
Q:1/4=75
M:4/4
K:Ab
V:1 treble nm="P1"
V:2 treble 
V:3 treble nm="P2"
V:4 treble 
V:5 bass nm="P3"
V:6 bass 
V:1
"^Editor: John Henry Fowler""^(  Revision:   4 - 14 - 2008  )""^Slow" z2 | %1
w: |
"^From \"English Lyrics\" -  Set 8 -  Number 5""^Words by Julian Sturgis""^Dedicated to Parry's Wife" z8 | %2
w: |
"^Charles Hubert Hastings Parry" z8 |"^( 1848 - 1918 )" z8 | z8 | z4!p! z !>!c2 C | %6
w: |||O my|
 =D2 E2 z!<(! FG!<)!A | !>!d>!>(!c B2!>)! z2!<(! z!<)! B | e3 A G3 G | %9
w: child love, my love of|long a- go, How|great was life when|
 c>!>(!F F!>)!G E3!<(! E!<)! |"^cresc. molto" c3 c !>!c2 =D2 |!mf! z =D/E/ FG E3!f! G | %12
w: thou and I were young~! The|world was bound- less,|For we did not know; And|
 (!>!e2 =d)c (e B2) z | z!p!!<(! G/A/!<)!!>(! B>=D!>)! E4 | z8 |"^poco agitato" z8 | %16
w: life _ a poem, _|For we had not sung.|||
 z c B>A c3 =D | =D z/ E/ FG E4 | e2 =dc e>=A A2- | AB!>(!c=d!>)! =D4 | %20
w: Now is the world grown|small, and we there- on|Fill with mere care and toil|_ each nar- row day;|
!mf!"^cresc.  animando" B2 =A>G c4 | c2 B>=A =dB G2 |"^cresc." z B G>=D =A3 A | %23
w: Elves from the wood,|Dreams from my heart are gone|And heav'n is bare, for|
 !>!=d>=B ^G=D!mf! ^C4 ||[K:F]"^agitato, stringendo" F2 EF D3 D | G>F FG E3 G | %26
w: God is far a- way.|Canst thou not come and|touch my hand a- gain, And|
 B2 AB"^poco rit." GA B2- | B2 (3c_dF _E3 E ||[K:Ab]"^Tempo Animato. (ad lib.)" !>!_ecAB c2 E2- | %29
w: I look on thee with grave|_ in- no- cent eyes~? Thy|God has man- y an- gels;|
 E!p! z"^meno mosso" ^D>D ^F2 =B2- | B2 ^G!<(!^c!<)!"^molto rit." c3 =B | %31
w: _ I would fain Woo|_ for one hour one|
 ^G=B, ^C>G!>)!!>(! ^^F4- | F2 z2 z4 | z8 | z8 | z2 z2 z!<(! !>!=d2!<)! =D | =D2"^rit." E2- EFGe | %37
w: an- gel from the skies.|_|||O my|child love, _ come back come|
"^a tempo" !>!_d3 c B2 z!<(! B!<)! | e3!>(! A AGF!>)!E | c3 =D E4 |!p! d2 c>F B3 B | %41
w: back to me, And,|laugh- ing, lead me from the|toil and din~!|Lay on my heart those|
!p! B2 A2!>(! G>F!>)! F2 | z"^cresc." F G>A B2 G2 | c4 z"^ad lib." A B>c | e4 e4 | e8 | z8 | z8 |] %48
w: small hands ten- der- ly|And let the whole world|in and let the|whole world|in.|||
V:2
 x2 | x8 | x8 | x8 | x8 | x8 | x8 | x8 | x8 | x8 | x8 | x8 | x8 | x8 | x8 | x8 | x8 | x8 | x8 | %19
 x8 | x8 | x8 | x8 | x8 ||[K:F] x8 | x8 | x8 | x8 ||[K:Ab] x8 | x8 | x8 | x8 | x8 | x8 | x8 | x8 | %36
 x8 | x8 | x8 | x8 | x8 | x8 | x8 | A4 x4 | x4 E4 | c8 | x8 | x8 |] %48
V:3
 (!>!c>(C) | (=D2) E) z ([CF]2 [=B,G]) z | z8 | z4 z2[K:bass] (!>!E>E,-) | %4
 F,2 G, z ([_D,-A,]2 [D,G,B,]) z | [C,A,C]4- [C,A,C] z z2 | z2 ([CE]4 [EAe]2) | %7
 z2 ([DAd]4 [B,EB]2) | z (!>![Ee]2 [EA]) z [G,EG]2 [G,EG] | z [CEc] z [B,G] E4 | %10
 z ([CA-c] [FAf]).[Ece] [Aca]2 z [C=DA] | [=B,FG]>(G [Ge])[F=d] [EG]3!f! [EG] | %12
 z ([E=Ae][Aeg])[EA] z (!>![B,EB]2 [_A,E_A]) | z ([B,EG]2 [A,=DF]) [G,E]2 z B | %14
 (AG) z c (BA) z !>!d | (cB) !>![GB-f-]2 ([Bf][Bd][GB][DF]) | .[CE]([CE][DG][EA]) [=DAc] (DEF) | %17
 [G,=B,](FE=D-) (DC) (3(EGc) | [EGe]G- G2 e (=AGF) | z (=AG^F) (AG=DB) | %20
 (3z ([=DG]B,) (3z ([G=d]D) (3z ([Gd]B,) (3(!>![Gg]ec) | %21
 (3z ([E=A]C) (3z ([Ge]E) (3z ([G=d]=D) (3(!>![Bg]dG) | [B=d=eb]2 [B,=D=E]2 z2 [=A,D=A]2 | %23
 !>![=D=E^G=d]2 [DEG]2"^stringendo" z4 ||[K:F] x2 .[A,^CA]2 x2 .[B,DF]2 | x2 .[DFG]2 x2 .[C=EG]2 | %26
 x2 .[FB]2 z2 ([CBc]2 | [_DB_d]2) F2 x2 [Bd_e]2 ||[K:Ab] [_GAc_g]2 z2 z2 (E2 | %29
 ([=A,^D=A]6) [^G,D^G].[^^F,^^F]) | ([^^F,=B,^^F]2 [^G,^G]2) z4 | z2 ([_A,_D_A]2 [G,EG]2) [Ee]>E | %32
"^a tempo" (!>![CEF]2 [B,EG]2) z2 (!>![Gg]>B) | (!>![E=Ac]2 [=D=B=d]2) z2!<(! ([d=d']>!<)!d) | %34
 !>!e2- f>G (=A2 =B>)=D | (!>!E2 F) z z4 | x2"^rit." C/E/G/c/ [EGe]2 z2 | %37
"^a tempo" ([_DG_d]3 [CAc] [B,EB]2) E2 | [EAe]3 [EA] (AG) E/G/B/e/ | %39
 [CEc]2 =D/F/B/B,/ z/ (B,/E/B/ c/A/E/C/) | (.[DAd]2 .[CFc]2 .[B,FB]2) z2 | %41
 (B2 A) z ([B,=EG]2 [A,F]) z | x2 x D/F/ [G,DFG]2 x G/B/ | [CAc]2 x (3C/A/c/ [=Dc=d]2 z2 | %44
 z2 ([eae']>[Ee]) (!>![Fef]2!>)!!>(! [G-_dg-]2) | [Gcg]!<(![Aa] [cc']c!<)! (=d!>(!e) z!>)! E | %46
 (!>![_DG=B]2 [CAc]2) z2 ([A,A]2 | .[Aea]2) z2 z4 |] %48
V:4
 x2 | C3 x z4 | x8 | x6[K:bass] x2 | E,3 x x4 | x8 | x8 | x8 | x8 | x4 B,2 [A,_D]G, | x8 | %11
 z4 (=DC G,2) | x8 | x8 | x8 | x4 F2 x2 | x4 x A,2 A, | x =B,2 B, G,2 E2 | x GFE E E3 | %19
 x [=A,C]2 [A,C] [B,D]2 x2 | x8 | x8 | x8 | x8 ||[K:F] x8 | x8 | x8 | x8 ||[K:Ab] x8 | x8 | x8 | %31
 x8 | x8 | x8 | =B3 z G3 z | =B,3 x x4 | x8 | x8 | x4 E2 x2 | x8 | x8 | =E3 x x4 | x8 | x8 | x8 | %45
 x4 [Ac]2 x2 | x8 | x8 |] %48
V:5
!p! z2 | ([F,A,]2 [E,G,]2) ([=D,F,]2 [G,,D,F,]) z | (3:2:2C,,2 G,,- (3[G,,-C,]E,-G,- !>![E,G,E]4- | %3
 [E,G,E]2 z2 z4 | ([A,,C,]2 [G,,B,,]) z!>(! (F,,2 E,,)!>)! z |!pp! [A,,,E,,]4- [A,,,E,,] z z2 | %6
!pp! A,,,2 [E,A,]2 C,,2 [E,A,C]2 | B,,,2 [B,,F,A,]2 D,,2 [D,E,G,]2 | %8
!pp! !>!A,,,2 [E,A,]2 B,,,2 [B,,E,B,]2 | A,,,2 A,,2- A,,(G,,F,,E,,) | %10
 [A,,,A,,]2!<(! [G,,,G,,]2 [F,,,F,,]!<)![=D,F,A,] [F,A,C][F,,,F,,] | %11
 [G,,,G,,]2 [G,=B,]2 z2 [C,,C,]2 | [F,,,F,,]2 [F,=A,E]2 [G,,,G,,]2 [C,,C,]2 | %13
!>(! [B,,,B,,]2!>)! B,,2!p! (E,,>B,, E,/ G,/B,/E/) | %14
"^cresc." (E,,>B,, E,/G,/_D/G/) (E,,>C, E,/A,/E/A/) | (E,,>B,, D,/G,/B,/D/!>(! F2)!>)! E,2 | %16
!p! [A,,,A,,]([E,A,]B,C) [F,,,F,,] (F,E,=D,) | [G,,,G,,](=D,G,F,) C,,(E,G,G,,) | %18
 C,(G,=B,C) [F,,F,](C,F,=A,) | [E,,E,]2"^dim." [=D,,=D,]2 [G,,D,]2 [G,,,G,,]2 | %20
"^cresc." [G,,=D,G,]2 [G,,,G,,]2 [G,,E,=A,]2 G,,,2 | %21
 [G,,E,=A,]2 [G,,,G,,]2!<(! [G,,=D,B,]2!<)! [G,,,G,,]2 | %22
"^cresc." [G,,=E,B,]2 [G,,,G,,]2 z2 [F,,,F,,]2 | %23
 [=E,,,=E,,]2!>(! [=E,=B,]2!>)!!mf! (3(=A,,,E,,=A,, (3^C,=A,^C) || %24
[K:F] (3([A,,,A,,]^C,F, x2) (3([B,,,B,,]D,F, x2) | (3([=G,,,=G,,]D,G, x2) (3([C,,C,]=E,G, x2) | %26
 (3([D,,D,]F,B, x2)"^rit." (3([E,,E,]G,B, x2) | (3([F,,F,]B,_D x2) (3([G,,_E,]B,_E x2) || %28
[K:Ab]!f! [A,,E,C]2"^colla voce" z2!p! z4 | [=B,,,=B,,]6!<(! B,,2!<)! |!>(! [=E,,=B,,]4 z4!>)! | %31
 z2 ([_F,,_B,,]2 [E,,B,,]2)!p! z2 | (E,,>B,, E,/F,/G,/B,/ E2) z2 | %33
 ([G,,,G,,]>=D, G,/=A,/=B,/=D/ G2)[K:treble] [FG=B]2 | G3 z"^dim." ([CE]2 [=B,=D]) z | %35
 (E,2 =D,) z z4 |!mf! (!>![C,,C,]>G, x2 [C,G,C]2) z2 | (E,,>B,, E,F, G,2) [E,,E,]2 | %38
 (3(C,E,A,) (3(_C,E,F,) (B,,/E,/G,/B,/ z2) | (A,,/F,/A,/C/ x2 G,,2) [_G,,E,A,]2 | %40
!p! .[F,A,].F,, .[E,F,=A,].E,, .[D,F,].D,, z2 | (G,2 A,) z!>(! [F,,C,]3!>)! z | %42
"^cresc." (!>!D,,>A,,D,/F,/ x) (B,,>D,F,/B,/ x) | (F,,>C,F,/A,/ x [F,A,]2) z2 | %44
!f!"^allargando" [E,,E,]2 [C,E,A,C]2 ([E,,,E,,]>B,, E,/G,/B,/E/) | %45
 [A,,,A,,]2!<(! z (A, F!<)!E!>(! (3CA,E,-)!>)! | [A,,E,]4 z2!f! ([A,,,A,,]2 | .[A,,E,A,]2) z2 z4 |] %48
V:6
 x2 | x8 | C,,4- [C,,G,,C,]4- | [C,,G,,C,]2 x2 x4 | x8 | x8 | x8 | x8 | x8 | x2 =D,2 E,4 | x8 | %11
 x8 | x8 | x4 E,,3 x | E,,3 x E,,3 x | E,,3 x x4 | x8 | x4 C,,2 x2 | C,2 x2 F,,2 x2 | x8 | x8 | %21
 x8 | x8 | x4 =A,,,2 x2 ||[K:F] x8 | x8 | x8 | x8 ||[K:Ab] x8 | x8 | x8 | x8 | E,,3 x x4 | %33
 x6[K:treble] x2 | (E2 =D) x x4 | G,,3 x x4 | x8 | E,,3 x x4 | C,2 _C,2 B,,2 x2 | A,,2 x2 x4 | x8 | %41
 C,3 x x4 | D,,3 x B,,3 x | x8 | x8 | x8 | x8 | x8 |] %48

